**kern	**kern	**dynam
*part1	*part1	*part1
*staff2	*staff1	*
*I"Piano	*	*
*clefF4	*clefG2	*
*k[]	*k[]	*
=1	=1	=1
4.B	16gLL	pp
.	16ee	.
.	16b	.
.	16g	.
.	16e	.
.	16BJJ	.
=	=	=
4.BB	16GLL	.
.	16B	.
.	16e	.
.	16B	.
.	16G	.
.	16BJJ	.
=	=	=
4.BBB	16ALL	.
.	16B	.
.	16e	.
.	16B	.
.	16A	.
.	16BJJ	.
=	=	=
4.BB	16F#XLL	.
.	16B	.
.	16d#X	.
.	16B	.
.	16F#	.
.	16BJJ	.
=	=	=
4E	16GLL	<
.	16B	.
.	16e	.
.	16B	mp >
8C	16e	]
.	16B-XJJ	.
=	=	=
4.FF 4.F	16cLL	] <
.	16f	.
.	16a	.
.	16f	.
.	16g#X	.
.	16fJJ	.
=	=	=
4.F	16cLL	[ mp >
.	16f	.
.	16a	.
.	16f	.
.	16Bn	.
.	16fJJ	.
=	=	=
*-	*-	*-
!!!system-decoration: {(s1,s2)}
